azure-icons/All-Resources.svg

<svg xmlns="http://www.w3.org/2000/svg" viewBox="0 0 18 18"><defs><linearGradient id="a" x1="8.88" y1="17.09" x2="8.88" y2="1.09" gradientUnits="userSpaceOnUse"><stop offset="0" stop-color="#5e9624"/><stop offset=".01" stop-color="#5e9724"/><stop offset=".35" stop-color="#6cab29"/><stop offset=".68" stop-color="#73b82c"/><stop offset="1" stop-color="#76bc2d"/></linearGradient></defs><path d="M6.48 12.29h4.8v4.8h-4.8zm-5.6-6.4h4.8v-4.8H1.55a.67.67 0 00-.67.67zm.67 11.2h4.13v-4.8H.88v4.13a.67.67 0 00.67.67zm-.67-5.6h4.8v-4.8H.88zm11.2 5.6h4.14a.67.67 0 00.66-.67v-4.13h-4.8zm-5.6-5.6h4.8v-4.8h-4.8zm5.6 0h4.8v-4.8h-4.8zm0-10.4v4.8h4.8V1.76a.67.67 0 00-.66-.67zm-5.6 4.8h4.8v-4.8h-4.8z" fill="url(#a)"/></svg>

<svg id="e0b4f447-d5a9-47e3-90e1-f2184bb9d14a" xmlns="http://www.w3.org/2000/svg" width="18" height="18" viewBox="0 0 18 18"><defs><linearGradient id="a3fc5392-9f45-473e-a2d4-5f63fa8e0710" x1="8.88" y1="17.09" x2="8.88" y2="1.09" gradientUnits="userSpaceOnUse"><stop offset="0" stop-color="#5e9624" /><stop offset="0.01" stop-color="#5e9724" /><stop offset="0.35" stop-color="#6cab29" /><stop offset="0.68" stop-color="#73b82c" /><stop offset="1" stop-color="#76bc2d" /></linearGradient></defs><title>Icon-general-1</title><path d="M6.48,12.29h4.8v4.8H6.48ZM.88,5.89h4.8V1.09H1.55a.67.67,0,0,0-.67.67Zm.67,11.2H5.68v-4.8H.88v4.13A.67.67,0,0,0,1.55,17.09Zm-.67-5.6h4.8V6.69H.88Zm11.2,5.6h4.14a.67.67,0,0,0,.66-.67V12.29h-4.8Zm-5.6-5.6h4.8V6.69H6.48Zm5.6,0h4.8V6.69h-4.8Zm0-10.4v4.8h4.8V1.76a.67.67,0,0,0-.66-.67Zm-5.6,4.8h4.8V1.09H6.48Z" fill="url(#a3fc5392-9f45-473e-a2d4-5f63fa8e0710)" /></svg>
